images/16757683.svg

<?xml version="1.0" encoding="UTF-8"?>
<svg xmlns="http://www.w3.org/2000/svg" xmlns:xlink="http://www.w3.org/1999/xlink" width="300pt" height="300pt" viewBox="0 0 300 300" version="1.1">
<defs>
<g>
<symbol overflow="visible" id="glyph0-0">
<path style="stroke:none;" d="M 0.546875 1.9375 L 0.546875 -7.75 L 6.046875 -7.75 L 6.046875 1.9375 Z M 1.171875 1.328125 L 5.4375 1.328125 L 5.4375 -7.140625 L 1.171875 -7.140625 Z M 1.171875 1.328125 "/>
</symbol>
<symbol overflow="visible" id="glyph0-1">
<path style="stroke:none;" d="M 4.328125 -7.28125 C 3.546875 -7.28125 2.921875 -6.984375 2.453125 -6.390625 C 1.992188 -5.804688 1.765625 -5.007812 1.765625 -4 C 1.765625 -2.988281 1.992188 -2.1875 2.453125 -1.59375 C 2.921875 -1.007812 3.546875 -0.71875 4.328125 -0.71875 C 5.117188 -0.71875 5.742188 -1.007812 6.203125 -1.59375 C 6.660156 -2.1875 6.890625 -2.988281 6.890625 -4 C 6.890625 -5.007812 6.660156 -5.804688 6.203125 -6.390625 C 5.742188 -6.984375 5.117188 -7.28125 4.328125 -7.28125 Z M 4.328125 -8.171875 C 5.453125 -8.171875 6.351562 -7.789062 7.03125 -7.03125 C 7.707031 -6.28125 8.046875 -5.269531 8.046875 -4 C 8.046875 -2.738281 7.707031 -1.726562 7.03125 -0.96875 C 6.351562 -0.21875 5.453125 0.15625 4.328125 0.15625 C 3.203125 0.15625 2.300781 -0.21875 1.625 -0.96875 C 0.957031 -1.71875 0.625 -2.726562 0.625 -4 C 0.625 -5.269531 0.957031 -6.28125 1.625 -7.03125 C 2.300781 -7.789062 3.203125 -8.171875 4.328125 -8.171875 Z M 4.328125 -8.171875 "/>
</symbol>
<symbol overflow="visible" id="glyph0-2">
<path style="stroke:none;" d="M 1.078125 -8.015625 L 5.6875 -8.015625 L 5.6875 -7.109375 L 2.171875 -7.109375 L 2.171875 -4.75 L 5.34375 -4.75 L 5.34375 -3.828125 L 2.171875 -3.828125 L 2.171875 0 L 1.078125 0 Z M 1.078125 -8.015625 "/>
</symbol>
<symbol overflow="visible" id="glyph0-3">
<path style="stroke:none;" d="M 1.078125 -8.015625 L 2.171875 -8.015625 L 2.171875 -4.734375 L 6.109375 -4.734375 L 6.109375 -8.015625 L 7.1875 -8.015625 L 7.1875 0 L 6.109375 0 L 6.109375 -3.8125 L 2.171875 -3.8125 L 2.171875 0 L 1.078125 0 Z M 1.078125 -8.015625 "/>
</symbol>
</g>
</defs>
<g id="surface36449">
<rect x="0" y="0" width="300" height="300" style="fill:rgb(100%,100%,100%);fill-opacity:1;stroke:none;"/>
<path style="fill:none;stroke-width:1.2;stroke-linecap:butt;stroke-linejoin:miter;stroke:rgb(0%,0%,0%);stroke-opacity:1;stroke-miterlimit:10;" d="M 198.246094 208.222656 L 184.363281 185.015625 "/>
<path style="fill:none;stroke-width:1.2;stroke-linecap:butt;stroke-linejoin:miter;stroke:rgb(0%,0%,0%);stroke-opacity:1;stroke-miterlimit:10;" d="M 184.363281 185.015625 L 157.328125 185.4375 "/>
<path style="fill:none;stroke-width:1.2;stroke-linecap:butt;stroke-linejoin:miter;stroke:rgb(0%,0%,0%);stroke-opacity:1;stroke-miterlimit:10;" d="M 197.519531 161.394531 L 184.363281 185.015625 "/>
<path style="fill:none;stroke-width:1.2;stroke-linecap:butt;stroke-linejoin:miter;stroke:rgb(0%,0%,0%);stroke-opacity:1;stroke-miterlimit:10;" d="M 157.328125 185.4375 L 143.445312 162.230469 "/>
<path style="fill:none;stroke-width:1.2;stroke-linecap:butt;stroke-linejoin:miter;stroke:rgb(0%,0%,0%);stroke-opacity:1;stroke-miterlimit:10;" d="M 143.445312 162.230469 L 116.410156 162.648438 "/>
<path style="fill:none;stroke-width:1.2;stroke-linecap:butt;stroke-linejoin:miter;stroke:rgb(0%,0%,0%);stroke-opacity:1;stroke-miterlimit:10;" d="M 156.601562 138.605469 L 143.445312 162.230469 "/>
<path style="fill:none;stroke-width:1.2;stroke-linecap:butt;stroke-linejoin:miter;stroke:rgb(0%,0%,0%);stroke-opacity:1;stroke-miterlimit:10;" d="M 116.410156 162.648438 L 98.628906 183.023438 "/>
<path style="fill:none;stroke-width:1.2;stroke-linecap:butt;stroke-linejoin:miter;stroke:rgb(0%,0%,0%);stroke-opacity:1;stroke-miterlimit:10;" d="M 102.527344 139.445312 L 116.410156 162.648438 "/>
<path style="fill:none;stroke-width:1.2;stroke-linecap:butt;stroke-linejoin:miter;stroke:rgb(0%,0%,0%);stroke-opacity:1;stroke-miterlimit:10;" d="M 98.628906 183.023438 L 73.757812 172.40625 "/>
<path style="fill:none;stroke-width:1.2;stroke-linecap:butt;stroke-linejoin:miter;stroke:rgb(0%,0%,0%);stroke-opacity:1;stroke-miterlimit:10;" d="M 73.757812 172.40625 L 76.167969 145.476562 "/>
<path style="fill:none;stroke-width:1.2;stroke-linecap:butt;stroke-linejoin:miter;stroke:rgb(0%,0%,0%);stroke-opacity:1;stroke-miterlimit:10;" d="M 76.167969 145.476562 L 102.527344 139.445312 "/>
<path style=" stroke:none;fill-rule:nonzero;fill:rgb(0%,0%,0%);fill-opacity:1;" d="M 76.167969 145.476562 L 49.058594 141.121094 L 49.203125 150.664062 Z M 76.167969 145.476562 "/>
<path style="fill:none;stroke-width:1.2;stroke-linecap:butt;stroke-linejoin:miter;stroke:rgb(0%,0%,0%);stroke-opacity:1;stroke-miterlimit:10;" d="M 76.167969 145.476562 L 72.921875 132.351562 "/>
<path style="fill:none;stroke-width:1.2;stroke-linecap:butt;stroke-linejoin:miter;stroke:rgb(100%,0%,0%);stroke-opacity:1;stroke-miterlimit:10;" d="M 72.921875 132.351562 L 69.675781 119.226562 "/>
<path style="fill:none;stroke-width:1.2;stroke-linecap:butt;stroke-linejoin:miter;stroke:rgb(0%,0%,0%);stroke-opacity:1;stroke-miterlimit:10;" d="M 102.527344 139.445312 L 115.683594 115.820312 "/>
<path style=" stroke:none;fill-rule:nonzero;fill:rgb(0%,0%,0%);fill-opacity:1;" d="M 102.527344 139.445312 L 93.191406 113.621094 L 84.917969 118.378906 Z M 102.527344 139.445312 "/>
<path style="fill:none;stroke-width:1.2;stroke-linecap:butt;stroke-linejoin:miter;stroke:rgb(0%,0%,0%);stroke-opacity:1;stroke-miterlimit:10;" d="M 115.683594 115.820312 L 142.71875 115.402344 "/>
<path style="fill:none;stroke-width:1.2;stroke-linecap:butt;stroke-linejoin:miter;stroke:rgb(0%,0%,0%);stroke-opacity:1;stroke-miterlimit:10;" d="M 142.71875 115.402344 L 156.601562 138.605469 "/>
<path style="fill:none;stroke-width:1.2;stroke-linecap:butt;stroke-linejoin:miter;stroke:rgb(0%,0%,0%);stroke-opacity:1;stroke-miterlimit:10;" d="M 142.71875 115.402344 L 149.296875 103.589844 "/>
<path style="fill:none;stroke-width:1.2;stroke-linecap:butt;stroke-linejoin:miter;stroke:rgb(100%,0%,0%);stroke-opacity:1;stroke-miterlimit:10;" d="M 149.296875 103.589844 L 155.875 91.777344 "/>
<path style="fill:none;stroke-width:1.2;stroke-linecap:butt;stroke-linejoin:miter;stroke:rgb(0%,0%,0%);stroke-opacity:1;stroke-miterlimit:10;" d="M 156.601562 138.605469 L 183.640625 138.1875 "/>
<path style=" stroke:none;fill-rule:nonzero;fill:rgb(0%,0%,0%);fill-opacity:1;" d="M 156.601562 138.605469 L 167.03125 125.609375 L 158.191406 122.019531 Z M 156.601562 138.605469 "/>
<path style="fill:none;stroke-width:1.2;stroke-linecap:butt;stroke-linejoin:miter;stroke:rgb(0%,0%,0%);stroke-opacity:1;stroke-miterlimit:10;" d="M 183.640625 138.1875 L 197.519531 161.394531 "/>
<path style="fill:none;stroke-width:1.2;stroke-linecap:butt;stroke-linejoin:miter;stroke:rgb(0%,0%,0%);stroke-opacity:1;stroke-miterlimit:10;" d="M 183.640625 138.1875 L 177.171875 123.589844 "/>
<path style="fill:none;stroke-width:1.2;stroke-linecap:butt;stroke-linejoin:miter;stroke:rgb(0%,0%,0%);stroke-opacity:1;stroke-miterlimit:10;" d="M 196.792969 114.5625 L 183.640625 138.1875 "/>
<path style="fill:none;stroke-width:1.2;stroke-linecap:butt;stroke-linejoin:miter;stroke:rgb(0%,0%,0%);stroke-opacity:1;stroke-miterlimit:10;" d="M 197.519531 161.394531 L 224.558594 160.976562 "/>
<path style="fill:none;stroke-width:1.2;stroke-linecap:butt;stroke-linejoin:miter;stroke:rgb(0%,0%,0%);stroke-opacity:1;stroke-miterlimit:10;" d="M 200.125 154.988281 L 221.753906 154.65625 "/>
<path style="fill:none;stroke-width:1.2;stroke-linecap:butt;stroke-linejoin:miter;stroke:rgb(0%,0%,0%);stroke-opacity:1;stroke-miterlimit:10;" d="M 224.558594 160.976562 L 237.714844 137.351562 "/>
<path style="fill:none;stroke-width:1.2;stroke-linecap:butt;stroke-linejoin:miter;stroke:rgb(0%,0%,0%);stroke-opacity:1;stroke-miterlimit:10;" d="M 237.761719 140.53125 L 251.28125 140.320312 "/>
<path style="fill:none;stroke-width:1.2;stroke-linecap:butt;stroke-linejoin:miter;stroke:rgb(100%,0%,0%);stroke-opacity:1;stroke-miterlimit:10;" d="M 251.28125 140.320312 L 264.800781 140.113281 "/>
<path style="fill:none;stroke-width:1.2;stroke-linecap:butt;stroke-linejoin:miter;stroke:rgb(0%,0%,0%);stroke-opacity:1;stroke-miterlimit:10;" d="M 237.664062 134.167969 L 251.183594 133.960938 "/>
<path style="fill:none;stroke-width:1.2;stroke-linecap:butt;stroke-linejoin:miter;stroke:rgb(100%,0%,0%);stroke-opacity:1;stroke-miterlimit:10;" d="M 251.183594 133.960938 L 264.699219 133.75 "/>
<path style="fill:none;stroke-width:1.2;stroke-linecap:butt;stroke-linejoin:miter;stroke:rgb(0%,0%,0%);stroke-opacity:1;stroke-miterlimit:10;" d="M 237.714844 137.351562 L 223.832031 114.144531 "/>
<path style=" stroke:none;fill-rule:nonzero;fill:rgb(100%,100%,100%);fill-opacity:1;" d="M 260.75 130.433594 L 269.75 130.433594 L 269.75 143.433594 L 260.75 143.433594 Z M 260.75 130.433594 "/>
<g style="fill:rgb(100%,0%,0%);fill-opacity:1;">
  <use xlink:href="#glyph0-1" x="260.75" y="140.334961"/>
</g>
<path style="fill:none;stroke-width:1.2;stroke-linecap:butt;stroke-linejoin:miter;stroke:rgb(0%,0%,0%);stroke-opacity:1;stroke-miterlimit:10;" d="M 223.832031 114.144531 L 196.792969 114.5625 "/>
<path style="fill:none;stroke-width:1.2;stroke-linecap:butt;stroke-linejoin:miter;stroke:rgb(0%,0%,0%);stroke-opacity:1;stroke-miterlimit:10;" d="M 221.226562 120.546875 L 199.597656 120.882812 "/>
<path style=" stroke:none;fill-rule:nonzero;fill:rgb(100%,100%,100%);fill-opacity:1;" d="M 159.613281 117.3125 L 166.613281 117.3125 L 166.613281 130.3125 L 159.613281 130.3125 Z M 159.613281 117.3125 "/>
<g style="fill:rgb(20%,80%,80%);fill-opacity:1;">
  <use xlink:href="#glyph0-2" x="159.613281" y="127.213867"/>
</g>
<path style=" stroke:none;fill-rule:nonzero;fill:rgb(100%,100%,100%);fill-opacity:1;" d="M 147.875 85.277344 L 164.875 85.277344 L 164.875 98.277344 L 147.875 98.277344 Z M 147.875 85.277344 "/>
<g style="fill:rgb(100%,0%,0%);fill-opacity:1;">
  <use xlink:href="#glyph0-1" x="147.875" y="95.178711"/>
  <use xlink:href="#glyph0-3" x="156.275391" y="95.178711"/>
</g>
<path style="fill:none;stroke-width:1.2;stroke-linecap:butt;stroke-linejoin:miter;stroke:rgb(0%,0%,0%);stroke-opacity:1;stroke-miterlimit:10;" d="M 46.351562 144.347656 L 39.773438 156.15625 "/>
<path style="fill:none;stroke-width:1.2;stroke-linecap:butt;stroke-linejoin:miter;stroke:rgb(100%,0%,0%);stroke-opacity:1;stroke-miterlimit:10;" d="M 39.773438 156.15625 L 33.195312 167.96875 "/>
<path style="fill:none;stroke-width:1.2;stroke-linecap:butt;stroke-linejoin:miter;stroke:rgb(0%,0%,0%);stroke-opacity:1;stroke-miterlimit:10;" d="M 51.910156 147.441406 L 45.332031 159.253906 "/>
<path style="fill:none;stroke-width:1.2;stroke-linecap:butt;stroke-linejoin:miter;stroke:rgb(100%,0%,0%);stroke-opacity:1;stroke-miterlimit:10;" d="M 45.332031 159.253906 L 38.753906 171.066406 "/>
<path style="fill:none;stroke-width:1.2;stroke-linecap:butt;stroke-linejoin:miter;stroke:rgb(0%,0%,0%);stroke-opacity:1;stroke-miterlimit:10;" d="M 49.132812 145.894531 L 35.25 122.6875 "/>
<path style=" stroke:none;fill-rule:nonzero;fill:rgb(100%,100%,100%);fill-opacity:1;" d="M 26.976562 163.019531 L 35.976562 163.019531 L 35.976562 176.019531 L 26.976562 176.019531 Z M 26.976562 163.019531 "/>
<g style="fill:rgb(100%,0%,0%);fill-opacity:1;">
  <use xlink:href="#glyph0-1" x="26.976562" y="172.920898"/>
</g>
<path style=" stroke:none;fill-rule:nonzero;fill:rgb(100%,100%,100%);fill-opacity:1;" d="M 61.675781 112.726562 L 78.675781 112.726562 L 78.675781 125.726562 L 61.675781 125.726562 Z M 61.675781 112.726562 "/>
<g style="fill:rgb(100%,0%,0%);fill-opacity:1;">
  <use xlink:href="#glyph0-3" x="61.675781" y="122.62793"/>
  <use xlink:href="#glyph0-1" x="69.700195" y="122.62793"/>
</g>
</g>
</svg>

<svg xmlns="http://www.w3.org/2000/svg" xmlns:xlink="http://www.w3.org/1999/xlink" width="300pt" height="300pt" viewBox="0 0 300 300"><defs><symbol overflow="visible"><path d="M.547 1.938V-7.75h5.5v9.688zm.625-.61h4.266v-8.47H1.171zm0 0"/></symbol><symbol overflow="visible" id="a"><path d="M4.328-7.28c-.78 0-1.406.296-1.875.89-.46.585-.687 1.382-.687 2.39 0 1.012.226 1.813.687 2.406.47.586 1.094.875 1.875.875.79 0 1.414-.288 1.875-.874.457-.593.688-1.394.688-2.406 0-1.008-.23-1.805-.687-2.39-.46-.594-1.086-.89-1.875-.89zm0-.892c1.125 0 2.024.383 2.703 1.14C7.708-6.28 8.048-5.27 8.048-4c0 1.262-.34 2.273-1.016 3.03C6.353-.22 5.454.157 4.33.157S2.3-.22 1.625-.97c-.668-.75-1-1.757-1-3.03 0-1.27.332-2.28 1-3.03.676-.76 1.578-1.142 2.703-1.142zm0 0"/></symbol><symbol overflow="visible" id="b"><path d="M1.078-8.016h4.61v.907H2.171v2.36h3.172v.922H2.172V0H1.078zm0 0"/></symbol><symbol overflow="visible" id="c"><path d="M1.078-8.016h1.094v3.282H6.11v-3.282h1.077V0H6.11v-3.813H2.17V0H1.078zm0 0"/></symbol></defs><g><path fill="#fff" d="M0 0h300v300H0z"/><path d="M198.246 208.223l-13.883-23.207M184.363 185.016l-27.035.422M197.52 161.395l-13.157 23.62M157.328 185.438l-13.883-23.208M143.445 162.23l-27.035.418M156.602 138.605l-13.157 23.625M116.41 162.648l-17.78 20.375M102.527 139.445l13.883 23.203M98.63 183.023l-24.872-10.617M73.758 172.406l2.41-26.93M76.168 145.477l26.36-6.032" stroke-width="1.2" stroke="#000" stroke-miterlimit="10" fill="none"/><path d="M76.168 145.477l-27.11-4.356.145 9.544zm0 0"/><path d="M76.168 145.477l-3.246-13.125" stroke-width="1.2" stroke="#000" stroke-miterlimit="10" fill="none"/><path d="M72.922 132.352l-3.246-13.125" stroke-width="1.2" stroke="#f00" stroke-miterlimit="10" fill="none"/><path d="M102.527 139.445l13.157-23.625" stroke-width="1.2" stroke="#000" stroke-miterlimit="10" fill="none"/><path d="M102.527 139.445L93.19 113.62l-8.272 4.76zm0 0"/><path d="M115.684 115.82l27.035-.418M142.72 115.402l13.882 23.203M142.72 115.402l6.577-11.812" stroke-width="1.2" stroke="#000" stroke-miterlimit="10" fill="none"/><path d="M149.297 103.59l6.578-11.813" stroke-width="1.2" stroke="#f00" stroke-miterlimit="10" fill="none"/><path d="M156.602 138.605l27.04-.417" stroke-width="1.2" stroke="#000" stroke-miterlimit="10" fill="none"/><path d="M156.602 138.605l10.43-12.996-8.84-3.59zm0 0"/><path d="M183.64 138.188l13.88 23.207M183.64 138.188l-6.468-14.598M196.793 114.563l-13.152 23.624M197.52 161.395l27.04-.418M200.125 154.988l21.63-.332M224.56 160.977l13.155-23.625M237.762 140.53l13.52-.21" stroke-width="1.2" stroke="#000" stroke-miterlimit="10" fill="none"/><path d="M251.28 140.32l13.52-.207" stroke-width="1.2" stroke="#f00" stroke-miterlimit="10" fill="none"/><path d="M237.664 134.168l13.52-.207" stroke-width="1.2" stroke="#000" stroke-miterlimit="10" fill="none"/><path d="M251.184 133.96l13.515-.21" stroke-width="1.2" stroke="#f00" stroke-miterlimit="10" fill="none"/><path d="M237.715 137.352l-13.883-23.207" stroke-width="1.2" stroke="#000" stroke-miterlimit="10" fill="none"/><path d="M260.75 130.434h9v13h-9zm0 0" fill="#fff"/><use xlink:href="#a" x="260.75" y="140.335" fill="#f00"/><path d="M223.832 114.145l-27.04.418M221.227 120.547l-21.63.336" stroke-width="1.2" stroke="#000" stroke-miterlimit="10" fill="none"/><path d="M159.613 117.313h7v13h-7zm0 0" fill="#fff"/><use xlink:href="#b" x="159.613" y="127.214" fill="#3cc"/><path d="M147.875 85.277h17v13h-17zm0 0" fill="#fff"/><g fill="#f00"><use xlink:href="#a" x="147.875" y="95.179"/><use xlink:href="#c" x="156.275" y="95.179"/></g><path d="M46.352 144.348l-6.58 11.808" stroke-width="1.2" stroke="#000" stroke-miterlimit="10" fill="none"/><path d="M39.773 156.156l-6.578 11.813" stroke-width="1.2" stroke="#f00" stroke-miterlimit="10" fill="none"/><path d="M51.91 147.44l-6.578 11.814" stroke-width="1.2" stroke="#000" stroke-miterlimit="10" fill="none"/><path d="M45.332 159.254l-6.578 11.812" stroke-width="1.2" stroke="#f00" stroke-miterlimit="10" fill="none"/><path d="M49.133 145.895L35.25 122.687" stroke-width="1.2" stroke="#000" stroke-miterlimit="10" fill="none"/><path d="M26.977 163.02h9v13h-9zm0 0" fill="#fff"/><use xlink:href="#a" x="26.977" y="172.921" fill="#f00"/><path d="M61.676 112.727h17v13h-17zm0 0" fill="#fff"/><g fill="#f00"><use xlink:href="#c" x="61.676" y="122.628"/><use xlink:href="#a" x="69.7" y="122.628"/></g></g></svg>
